X: 1
T: Norrlands skrot 2
R: Polska
O: Maxelander, \~nstergtland
S: efter en upptagning av Bordunverkstan p Ekebyholmskursen 2003.
B: http://www.smus.se/earkiv/fmk/browselarge.phplang=sw&katalogid=Ma9&bildnr=00054|SMUS - katalog Ma9 bild 54 (skiljer sig litet t frn denna uppteckning)
N: Bordunverkstan satte ihop denna lt med en annan och kallade dem fr Norrlands skrot.
Z: Nils L, 2008-09-05
M: 3/4
K: Gm
L: 1/16
B4 A4 G4       | (D=E)^FG (AF)Ac B2A2 | G2ed c2B2 A2G2 | (^FG)AG F2D2 G2A2 |
B2d2 A2d2 G2d2 | (D=E)^FG (AF)Ac B2A2 | G2ed c2B2 A2G2 |1 (^FG)AF G8 :|2 (^FG)AF G2>A2 (BA)Bc |]
|: d2F2 -!tenuto!F2d2 d2c=B | c2F2 -!tenuto!F2c2 c2BA | (BA)Bc (dB)cA (BG)A^F | (G^F)GB (AG)F=E D2d^c |
   d2F2 -!tenuto!F2d2 d2c=B | c2F2 -!tenuto!F2c2 c2BA | (BA)Bc (dB)cA (BG)A^F | (D^F)AF G8 :|
